openframe-frontend-core/src/components/icons-v2/brand-logos/trello.svg

<svg width="24" height="24" viewBox="0 0 24 24" fill="none" xmlns="http://www.w3.org/2000/svg">
<path d="M19.875 6C19.875 4.96447 19.0355 4.125 18 4.125H6C4.96447 4.125 4.125 4.96447 4.125 6V18C4.125 19.0355 4.96447 19.875 6 19.875H18C19.0355 19.875 19.875 19.0355 19.875 18V6ZM22.125 18C22.125 20.2782 20.2782 22.125 18 22.125H6C3.72183 22.125 1.875 20.2782 1.875 18V6C1.875 3.72183 3.72183 1.875 6 1.875H18C20.2782 1.875 22.125 3.72183 22.125 6V18Z" fill="#888888"/>
<path d="M7.625 15.875H9.125V7.625H7.625V15.875ZM14.8745 10.8755H16.3745V7.625H14.8745V10.8755ZM11.375 16.5005C11.3747 17.3976 10.6476 18.1247 9.75049 18.125H6.99951C6.10244 18.1247 5.37526 17.3976 5.375 16.5005V6.99951C5.37526 6.10244 6.10244 5.37526 6.99951 5.375H9.75049C10.6476 5.37526 11.3747 6.10244 11.375 6.99951V16.5005ZM18.6245 11.4995C18.6245 12.397 17.8975 13.1255 17 13.1255H14.2505C13.353 13.1255 12.6245 12.397 12.6245 11.4995V6.99951C12.6248 6.10227 13.3532 5.375 14.2505 5.375H17C17.8973 5.375 18.6242 6.10227 18.6245 6.99951V11.4995Z" fill="#888888"/>
</svg>

<svg xmlns="http://www.w3.org/2000/svg" width="24" height="24" fill="none" viewBox="0 0 24 24">
  <path fill="#888" d="M19.875 6c0-1.036-.84-1.875-1.875-1.875H6c-1.036 0-1.875.84-1.875 1.875v12c0 1.035.84 1.875 1.875 1.875h12c1.035 0 1.875-.84 1.875-1.875V6Zm2.25 12A4.125 4.125 0 0 1 18 22.125H6A4.125 4.125 0 0 1 1.875 18V6A4.125 4.125 0 0 1 6 1.875h12A4.125 4.125 0 0 1 22.125 6v12Z"/>
  <path fill="#888" d="M7.625 15.875h1.5v-8.25h-1.5v8.25Zm7.25-5h1.5v-3.25h-1.5v3.25Zm-3.5 5.625c0 .898-.727 1.625-1.625 1.625H7A1.625 1.625 0 0 1 5.375 16.5V7c0-.898.727-1.625 1.625-1.625h2.75c.898 0 1.625.727 1.625 1.625v9.5Zm7.25-5c0 .897-.727 1.626-1.625 1.626h-2.75a1.627 1.627 0 0 1-1.626-1.627V7c0-.897.73-1.624 1.627-1.624H17c.897 0 1.624.727 1.625 1.625v4.5Z"/>
</svg>
